my_site/img/footer/fb.svg

<svg width="24" height="24" fill="none" xmlns="http://www.w3.org/2000/svg"><path d="M23.04 0H.96A.959.959 0 000 .96v22.08c0 .531.429.96.96.96h22.08c.531 0 .96-.429.96-.96V.96a.959.959 0 00-.96-.96zm-2.772 7.005h-1.917c-1.503 0-1.794.714-1.794 1.764v2.313h3.588l-.468 3.621h-3.12V24h-3.741v-9.294H9.687v-3.624h3.129v-2.67c0-3.099 1.893-4.788 4.659-4.788 1.326 0 2.463.099 2.796.144v3.237h-.003z" fill="#335BF5"/></svg>

<svg width="24" height="24" viewBox="0 0 24 24" fill="none" xmlns="http://www.w3.org/2000/svg">
<path d="M23.04 0H0.96C0.429 0 0 0.429 0 0.96V23.04C0 23.571 0.429 24 0.96 24H23.04C23.571 24 24 23.571 24 23.04V0.96C24 0.429 23.571 0 23.04 0ZM20.268 7.005H18.351C16.848 7.005 16.557 7.719 16.557 8.769V11.082H20.145L19.677 14.703H16.557V24H12.816V14.706H9.687V11.082H12.816V8.412C12.816 5.313 14.709 3.624 17.475 3.624C18.801 3.624 19.938 3.723 20.271 3.768V7.005H20.268Z" fill="#335BF5"/>
</svg>
